src/ios-rose-outline.svg

<?xml version="1.0" encoding="utf-8"?>
<!-- Generated by IcoMoon.io -->
<!DOCTYPE svg PUBLIC "-//W3C//DTD SVG 1.1//EN" "http://www.w3.org/Graphics/SVG/1.1/DTD/svg11.dtd">
<svg version="1.1" xmlns="http://www.w3.org/2000/svg" xmlns:xlink="http://www.w3.org/1999/xlink" width="512" height="512" viewBox="0 0 512 512">
<path fill="#000000" d="M379.769 153.431c-29.777 55.586-17.604 99.504-6.645 139.039 5.593 20.178 10.876 39.238 10.876 59.419 0 15.897-2.956 30.873-8.785 44.51-5.727 13.396-14.104 25.212-24.898 35.12-23.148 21.249-55.762 32.481-94.317 32.481s-71.169-11.232-94.316-32.481c-10.795-9.908-19.172-21.725-24.898-35.12-5.829-13.637-8.785-28.612-8.785-44.51 0-31.65 6.92-55.999 21.775-76.626 13.061-18.134 32.646-34.094 63.505-51.749l6.506-3.725c20.197-11.57 27.001-15.467 43.976-23.588 31.845-15.234 66.513-28.387 103.041-39.094 4.284-1.256 8.608-2.482 12.965-3.676zM416 128c-18.863 4.163-36.75 8.786-53.697 13.753-40.457 11.858-75.509 25.693-105.445 40.015-19.271 9.219-26.236 13.393-51.522 27.859-58.335 33.373-93.336 69.299-93.336 142.262s55.635 128.111 144 128.111 144-55.148 144-128.111-61.001-127.889 16-223.889v0z"></path>
<path fill="#000000" d="M133.516 123.147c21.432 6.955 47.724 16.977 69.799 29.846 6.385 3.723 12.092 7.493 17.092 11.291-5.504 2.905-10.895 5.855-16.138 8.833-7.212 4.096-14.359 8.362-21.243 12.679-10.484 6.574-20.435 13.308-29.789 20.156-0.6-25.918-5.682-54.802-19.721-82.805zM96 96c41.475 47.079 44.624 103.891 39.382 144.741 12.772-11.274 31.177-25.734 56.144-41.389 6.442-4.041 13.312-8.158 20.645-12.322 11.578-6.575 23.538-12.822 35.834-18.765-9.113-10.898-22.070-20.606-36.631-29.095-48.743-28.414-115.374-43.17-115.374-43.17v0z"></path>
<path fill="#000000" d="M344.629 80.697c5.309 7.227 12.393 17.661 17.66 27.726-29.863 8.433-65.994 21.145-94.967 33.476-5.963-6.235-12.982-12.294-21.006-18.135 17.437-15.757 38.773-27.668 63.652-35.506 14.55-4.583 27.048-6.646 34.661-7.561zM352 64c0 0-78.623 2.321-130.681 62.469 16.629 9.903 29.735 20.503 38.959 31.533l2.724 3.257c37.152-16.794 88.131-34.085 120.998-42.009-6.383-23.423-32-55.25-32-55.25v0z"></path>
<path fill="#000000" d="M181.229 53.532c9.241 6.122 22.68 16.481 35.999 31.924-4.851 4.201-9.487 8.623-13.888 13.247-14.024-7.088-24.951-12.192-36.826-16.602 3.66-8.471 8.581-18.313 14.715-28.569zM176 32c-15.256 22.406-25.684 45.299-30.336 59.997 21.111 6.355 35.475 13.215 61.389 26.574 9.505-11.4 20.415-21.626 32.605-30.543-29.316-40.373-63.658-56.028-63.658-56.028v0z"></path>
</svg>

<?xml version="1.0" encoding="utf-8"?>
<!-- Generator: Adobe Illustrator 16.2.1, SVG Export Plug-In . SVG Version: 6.00 Build 0)  -->
<!DOCTYPE svg PUBLIC "-//W3C//DTD SVG 1.1//EN" "http://www.w3.org/Graphics/SVG/1.1/DTD/svg11.dtd">
<svg version="1.1" id="Layer_1" xmlns="http://www.w3.org/2000/svg" xmlns:xlink="http://www.w3.org/1999/xlink" x="0px" y="0px"
	 width="512px" height="512px" viewBox="0 0 512 512" enable-background="new 0 0 512 512" xml:space="preserve">
<g>
	<path d="M379.769,153.431c-29.777,55.586-17.604,99.504-6.645,139.039C378.717,312.648,384,331.708,384,351.889
		c0,15.897-2.956,30.873-8.785,44.51c-5.727,13.396-14.104,25.212-24.898,35.12C327.169,452.768,294.555,464,256,464
		s-71.169-11.232-94.316-32.481c-10.795-9.908-19.172-21.725-24.898-35.12c-5.829-13.637-8.785-28.612-8.785-44.51
		c0-31.65,6.92-55.999,21.775-76.626c13.061-18.134,32.646-34.094,63.505-51.749l6.506-3.725
		c20.197-11.57,27.001-15.467,43.976-23.588c31.845-15.234,66.513-28.387,103.041-39.094
		C371.088,155.851,375.412,154.625,379.769,153.431 M416,128c-18.863,4.163-36.75,8.786-53.697,13.753
		c-40.457,11.858-75.509,25.693-105.445,40.015c-19.271,9.219-26.236,13.393-51.522,27.859C147.001,243,112,278.926,112,351.889
		S167.635,480,256,480s144-55.148,144-128.111S338.999,224,416,128L416,128z"/>
	<path d="M133.516,123.147c21.432,6.955,47.724,16.977,69.799,29.846c6.385,3.723,12.092,7.493,17.092,11.291
		c-5.504,2.905-10.895,5.855-16.138,8.833c-7.212,4.096-14.359,8.362-21.243,12.679c-10.484,6.574-20.435,13.308-29.789,20.156
		C152.637,180.034,147.555,151.15,133.516,123.147 M96,96c41.475,47.079,44.624,103.891,39.382,144.741
		c12.772-11.274,31.177-25.734,56.144-41.389c6.442-4.041,13.312-8.158,20.645-12.322c11.578-6.575,23.538-12.822,35.834-18.765
		c-9.113-10.898-22.07-20.606-36.631-29.095C162.631,110.756,96,96,96,96L96,96z"/>
	<path d="M344.629,80.697c5.309,7.227,12.393,17.661,17.66,27.726c-29.863,8.433-65.994,21.145-94.967,33.476
		c-5.963-6.235-12.982-12.294-21.006-18.135c17.437-15.757,38.773-27.668,63.652-35.506
		C324.518,83.675,337.016,81.612,344.629,80.697 M352,64c0,0-78.623,2.321-130.681,62.469c16.629,9.903,29.735,20.503,38.959,31.533
		l2.724,3.257c37.152-16.794,88.131-34.085,120.998-42.009C377.617,95.827,352,64,352,64L352,64z"/>
	<path d="M181.229,53.532c9.241,6.122,22.68,16.481,35.999,31.924c-4.851,4.201-9.487,8.623-13.888,13.247
		c-14.024-7.088-24.951-12.192-36.826-16.602C170.174,73.63,175.095,63.788,181.229,53.532 M176,32
		c-15.256,22.406-25.684,45.299-30.336,59.997c21.111,6.355,35.475,13.215,61.389,26.574c9.505-11.4,20.415-21.626,32.605-30.543
		C210.342,47.655,176,32,176,32L176,32z"/>
</g>
</svg>
